svg/S.svg

<?xml version="1.0" encoding="UTF-8"?>
<svg xmlns="http://www.w3.org/2000/svg" xmlns:xlink="http://www.w3.org/1999/xlink" width="128px" height="128px" viewBox="0 0 128 128" version="1.1">
<g id="surface1">
<rect y="0" x="0" height="128" width="128" id="rect842" style="fill:#ffffff;fill-opacity:0;stroke:none;" />
<path style="fill:none;stroke-width:1.058;stroke-linecap:round;stroke-linejoin:round;stroke:rgb(0%,0%,0%);stroke-opacity:1;stroke-miterlimit:4;" d="M -26.343067 30.786173 L -22.037824 30.786173 C -21.108148 30.786173 -20.354175 31.540146 -20.354175 32.469822 L -20.354175 32.542171 C -20.354175 33.471847 -21.108148 34.22582 -22.037824 34.22582 L -26.343067 34.22582 C -27.27326 34.22582 -28.027233 33.471847 -28.027233 32.542171 L -28.027233 32.469822 C -28.027233 31.540146 -27.27326 30.786173 -26.343067 30.786173 Z M -26.343067 30.786173 " transform="matrix(0,7.558915,-7.558915,0,309.710068,277.855478)"/>
<path style="fill-rule:nonzero;fill:rgb(0%,0%,0%);fill-opacity:1;stroke-width:0.529;stroke-linecap:round;stroke-linejoin:round;stroke:rgb(100%,100%,100%);stroke-opacity:1;stroke-miterlimit:4;" d="M -26.316195 30.786173 L -22.065213 30.786173 C -21.120033 30.786173 -20.354175 31.552032 -20.354175 32.497211 L -20.354175 32.514781 C -20.354175 33.459961 -21.120033 34.22582 -22.065213 34.22582 L -26.316195 34.22582 C -27.260858 34.22582 -28.027233 33.459961 -28.027233 32.514781 L -28.027233 32.497211 C -28.027233 31.552032 -27.260858 30.786173 -26.316195 30.786173 Z M -26.316195 30.786173 " transform="matrix(0,7.558915,-7.558915,0,309.710068,277.855478)"/>
<path style=" stroke:none;fill-rule:nonzero;fill:rgb(20%,20%,20%);fill-opacity:1;" d="M 64 84 C 61.242188 84 59.003906 81.761719 59.003906 79.003906 C 59.003906 76.242188 61.242188 74.007812 64 74.007812 C 66.757812 74.007812 68.996094 76.242188 68.996094 79.003906 C 68.996094 81.761719 66.757812 84 64 84 Z M 64 84 "/>
<path style=" stroke:none;fill-rule:nonzero;fill:rgb(100%,0%,0%);fill-opacity:1;" d="M 64 100 C 61.242188 100 59.003906 97.765625 59.003906 95.003906 C 59.003906 92.246094 61.242188 90.007812 64 90.007812 C 66.757812 90.007812 68.996094 92.246094 68.996094 95.003906 C 68.996094 97.765625 66.757812 100 64 100 Z M 64 100 "/>
<path style=" stroke:none;fill-rule:nonzero;fill:rgb(20%,20%,20%);fill-opacity:1;" d="M 64 115.996094 C 61.242188 115.996094 59.003906 113.757812 59.003906 111 C 59.003906 108.242188 61.242188 106.003906 64 106.003906 C 66.757812 106.003906 68.996094 108.242188 68.996094 111 C 68.996094 113.757812 66.757812 115.996094 64 115.996094 Z M 64 115.996094 "/>
</g>
</svg>

<svg xmlns="http://www.w3.org/2000/svg" width="128" height="128"><path fill="none" d="M0 0h128v128H0z" style="fill:#fff;fill-opacity:0;stroke:none"/><path d="M-26.343 30.786h4.305c.93 0 1.684.754 1.684 1.684v.072c0 .93-.754 1.684-1.684 1.684h-4.305c-.93 0-1.684-.754-1.684-1.684v-.072c0-.93.754-1.684 1.684-1.684Zm0 0" style="fill:none;stroke-width:1.058;stroke-linecap:round;stroke-linejoin:round;stroke:#000;stroke-opacity:1;stroke-miterlimit:4" transform="matrix(0 7.55891 -7.55891 0 309.71 277.855)"/><path d="M-26.316 30.786h4.25a1.71 1.71 0 0 1 1.712 1.711v.018a1.71 1.71 0 0 1-1.711 1.71h-4.251a1.711 1.711 0 0 1-1.711-1.71v-.018c0-.945.766-1.71 1.71-1.71Zm0 0" style="fill-rule:nonzero;fill:#000;fill-opacity:1;stroke-width:.529;stroke-linecap:round;stroke-linejoin:round;stroke:#fff;stroke-opacity:1;stroke-miterlimit:4" transform="matrix(0 7.55891 -7.55891 0 309.71 277.855)"/><path d="M64 84a4.995 4.995 0 1 1-.001-9.993A4.995 4.995 0 0 1 64 84Zm0 0" style="stroke:none;fill-rule:nonzero;fill:#333;fill-opacity:1"/><path d="M64 100a4.995 4.995 0 1 1-.001-9.99A4.995 4.995 0 0 1 64 100Zm0 0" style="stroke:none;fill-rule:nonzero;fill:red;fill-opacity:1"/><path d="M64 115.996A4.998 4.998 0 0 1 59.004 111 4.998 4.998 0 0 1 64 106.004 4.998 4.998 0 0 1 68.996 111 4.998 4.998 0 0 1 64 115.996Zm0 0" style="stroke:none;fill-rule:nonzero;fill:#333;fill-opacity:1"/></svg>
